src/images/bridges/hop.svg

<svg width="36" height="36" viewBox="0 0 36 36" fill="none" xmlns="http://www.w3.org/2000/svg">
<circle cx="18" cy="18" r="18" fill="url(#paint0_linear_116_14)"/>
<path d="M30.557 14.3633L25.3859 6.63512C24.5738 5.42385 22.7373 6.06687 22.7973 7.53847C22.8523 8.87991 23.3403 10.2998 24.5082 12.0422L24.5088 12.0454L24.5075 12.0483L24.5047 12.0499L24.5015 12.0495C24.0238 11.6835 16.8207 6.12646 8.25856 9.08536H8.24889C7.30393 9.44922 6.82152 10.2433 7.06069 11.1744C7.28204 12.0364 8.14253 12.554 8.99794 12.4081C10.8166 12.0971 12.6216 11.9491 14.3965 12.1091C16.1714 12.2691 17.9077 12.7364 19.5243 13.5525C21.141 14.3685 22.6055 15.5233 23.9514 16.8459C25.4653 18.3322 27.3436 21.5018 27.3436 21.5018C27.4537 21.7026 27.6292 21.8571 27.8393 21.9379C28.0494 22.0187 28.2807 22.0207 28.492 21.9435C29.0009 21.7564 29.238 21.1536 29.0467 20.6365C28.6477 19.5558 28.1592 18.5123 27.5868 17.5172L27.5855 17.5137L27.5867 17.5102L27.5899 17.5085L27.5934 17.5093C28.2265 17.754 28.8122 18.0588 29.5052 17.892C30.0706 17.7555 30.5667 17.3604 30.7972 16.8073C30.9641 16.4128 31.0297 15.981 30.9876 15.5531C30.9456 15.1251 30.7973 14.7155 30.557 14.3633Z" fill="white"/>
<path d="M6.44294 22.6367L11.614 30.3649C12.4262 31.5761 14.2627 30.9331 14.2026 29.4616C14.1477 28.12 13.6597 26.7002 12.4918 24.9578L12.4912 24.9546L12.4925 24.9516L12.4953 24.9501L12.4984 24.9505C12.9763 25.3164 20.1793 30.8735 28.7415 27.9146H28.7511C29.696 27.5508 30.1785 26.7567 29.9393 25.8256C29.7179 24.9636 28.8574 24.446 28.0021 24.5919C26.1833 24.9029 24.3784 25.0509 22.6035 24.8909C20.8286 24.7309 19.0923 24.2636 17.4757 23.4475C15.859 22.6315 14.3945 21.4767 13.0485 20.154C11.5347 18.6678 9.65643 15.4982 9.65643 15.4982C9.54635 15.2974 9.37076 15.1429 9.16063 15.0621C8.9505 14.9813 8.71934 14.9793 8.50792 15.0564C7.99905 15.2436 7.76192 15.8464 7.95326 16.3634C8.35229 17.4441 8.84072 18.4878 9.41319 19.4828L9.4145 19.4862L9.41326 19.4897L9.41009 19.4915L9.40658 19.4906C8.77355 19.246 8.18785 18.9412 7.49477 19.108C6.92941 19.2444 6.43327 19.6397 6.20276 20.1927C6.03587 20.5871 5.97032 21.019 6.01237 21.4469C6.05443 21.8748 6.20268 22.2845 6.44294 22.6367Z" fill="white"/>
<defs>
<linearGradient id="paint0_linear_116_14" x1="37.9056" y1="52.4674" x2="-31.9403" y2="-3.3542" gradientUnits="userSpaceOnUse">
<stop offset="0.15" stop-color="#B32EFF"/>
<stop offset="0.42" stop-color="#CE60D3"/>
<stop offset="0.65" stop-color="#E185B3"/>
<stop offset="0.84" stop-color="#EE9C9F"/>
<stop offset="0.96" stop-color="#F2A498"/>
</linearGradient>
</defs>
</svg>

<svg xmlns="http://www.w3.org/2000/svg" width="36" height="36" fill="none"><circle cx="18" cy="18" r="18" fill="url(#a)"/><path fill="#fff" d="m30.557 14.363-5.171-7.728c-.812-1.211-2.649-.568-2.589.903.055 1.342.543 2.762 1.711 4.504v.006l-.003.002h-.003c-.478-.367-7.681-5.924-16.243-2.965h-.01c-.945.364-1.427 1.158-1.188 2.09.221.861 1.082 1.379 1.937 1.233 1.819-.31 3.624-.459 5.399-.299s3.51.627 5.127 1.444c1.617.815 3.081 1.97 4.427 3.293 1.514 1.486 3.393 4.656 3.393 4.656.11.2.285.355.495.436.21.08.442.083.653.006.509-.188.746-.79.555-1.307a20.5 20.5 0 0 0-1.46-3.12l-.002-.003.002-.004.003-.002.003.001c.634.245 1.22.55 1.912.383a1.88 1.88 0 0 0 1.292-1.085 2.57 2.57 0 0 0-.24-2.444M6.443 22.637l5.171 7.728c.812 1.211 2.649.568 2.589-.903-.055-1.342-.543-2.762-1.711-4.504v-.006l.003-.002h.003c.478.366 7.681 5.924 16.243 2.965h.01c.945-.364 1.427-1.158 1.188-2.09-.221-.861-1.082-1.379-1.937-1.233-1.819.31-3.624.459-5.398.299a14.2 14.2 0 0 1-5.128-1.443c-1.617-.817-3.081-1.971-4.427-3.294-1.514-1.486-3.393-4.656-3.393-4.656a.96.96 0 0 0-.495-.436.93.93 0 0 0-.653-.006c-.509.188-.746.79-.555 1.307a20.5 20.5 0 0 0 1.46 3.12l.002.003-.002.004-.003.002-.003-.001c-.633-.245-1.22-.55-1.912-.383a1.88 1.88 0 0 0-1.292 1.085 2.58 2.58 0 0 0 .24 2.444"/><defs><linearGradient id="a" x1="37.906" x2="-31.94" y1="52.467" y2="-3.354" gradientUnits="userSpaceOnUse"><stop offset=".15" stop-color="#B32EFF"/><stop offset=".42" stop-color="#CE60D3"/><stop offset=".65" stop-color="#E185B3"/><stop offset=".84" stop-color="#EE9C9F"/><stop offset=".96" stop-color="#F2A498"/></linearGradient></defs></svg>
